X:1
T:Title
%%score ( 1 2 ) { 3 | 4 }
L:1/8
M:4/4
K:Eb
V:1 treble nm="Grand Piano, Staff 1"
V:2 treble 
V:3 bass nm="Choir Pad, Look Away to Jesus"
V:4 bass 
V:1
 E2 F2 [EG]2 [EA]2 | [EB]4 [B,E]4 | G2 z2 E2 z2 | [B,E]8 | C2 D2 [CE]2 [DF]2 | [EG]4 [Ec]4 | %6
w: By~Philip~Paul~Bliss~(1838\-1876) * * *||||||
 B2 =A2 G2 A2 | [DB]8 | [DB]2 [CA]2 G2 F2 | [B,E]4 B,4 | E2 D2 E2 [EG]2 | [DF]8 | %12
w: ||||||
 [EG]2 [DA]2 [EB]2 [Ge]2 | [Ae]4 [Ec]4 | B2 A2 G3 F | [B,E]8 |] %16
w: ||||
V:2
 x8 | x8 | C2- [CF]2 B,2- [B,D]2 | x8 | x8 | x8 | E4 E4 | x8 | z4 B,4 | x8 | B,4 z4 | x8 | x8 | %13
 x8 | E4 D4 | x8 |] %16
V:3
 G,2 A,2 B,2 F,2 | G,4 G,4 | B,2 A,2 G,2 F,2 | G,8 | E,2 F,2 G,4 | C4 C4 | C4 C4 | B,8 | %8
 F,4 B,2 A,2 | G,4 G,4 | G,2 A,2 B,4 | B,8 | B,6 _D2 | C4 A,4 | G,2 F,2 B,2 A,2 | G,8 |] %16
V:4
 E,4 E,4 | E,4 E,4 | A,,4 B,,4 | E,8 | C,4 C,4 | C,4 C,4 | F,4 F,4 | B,,8 | B,,4 B,,4 | E,4 E,4 | %10
 E,2 F,2 G,2 E,2 | B,,8 | E,2 F,2 G,2 E,2 | A,4 A,,4 | B,,4 B,,4 | E,8 |] %16

